icons/circle/48/hb-icon.svg

<svg xmlns="http://www.w3.org/2000/svg" viewBox="0 0 48 48">
  <defs>
    <linearGradient id="a" x1="1" x2="47" gradientUnits="userSpaceOnUse" gradientTransform="rotate(-90 24 24)">
      <stop stop-color="#3d3d3d"/>
      <stop offset="1" stop-color="#474747"/>
    </linearGradient>
  </defs>
  <path d="M36.31 5c5.859 4.062 9.688 10.831 9.688 18.5 0 12.426-10.07 22.5-22.5 22.5-7.669 0-14.438-3.828-18.5-9.688a23.24 23.24 0 0 0 3.781 4.969 22.923 22.923 0 0 0 15.469 5.969c12.703 0 23-10.298 23-23a22.92 22.92 0 0 0-5.969-15.469A23.216 23.216 0 0 0 36.31 5zm4.969 3.781A22.911 22.911 0 0 1 47.498 24.5c0 12.703-10.297 23-23 23a22.909 22.909 0 0 1-15.719-6.219C12.939 45.425 18.662 48 24.998 48c12.703 0 23-10.298 23-23 0-6.335-2.575-12.06-6.719-16.219z" opacity=".05"/>
  <path d="M41.28 8.781a22.923 22.923 0 0 1 5.969 15.469c0 12.703-10.297 23-23 23A22.92 22.92 0 0 1 8.78 41.281 22.911 22.911 0 0 0 24.499 47.5c12.703 0 23-10.298 23-23A22.909 22.909 0 0 0 41.28 8.781z" opacity=".1"/>
  <path d="M31.25 2.375C39.865 5.529 46 13.792 46 23.505c0 12.426-10.07 22.5-22.5 22.5-9.708 0-17.971-6.135-21.12-14.75a23 23 0 0 0 44.875-7 23 23 0 0 0-16-21.875z" opacity=".2"/>
  <path d="M24 1c12.703 0 23 10.297 23 23S36.703 47 24 47 1 36.703 1 24 11.297 1 24 1z" fill="url(#a)"/>
  <path d="M27.582 11a42.402 42.402 0 0 0-3.797.137c-2.59.204-5.125.625-6.641 1.156-3.039 1.059-3.527 1.125-3.289 2.172.814 1.211 1.326 2.538 1.963 3.826A12 12 0 0 0 13 26a12 12 0 0 0 12 12 12 12 0 0 0 12-12 12 12 0 0 0-4.111-9.02c.685-1.213 1.073-2.735 1.373-3.842.254-.953-.086-1.258-3.531-1.887-.861-.158-1.951-.235-3.148-.25zm2.773 2.545l.004.002a.564.564 0 0 1 .617.512.567.567 0 0 1-.527.605.575.575 0 0 1-.621-.518.568.568 0 0 1 .527-.602zm-12.643.955a.569.569 0 0 1 .619.512.571.571 0 0 1-.529.605.572.572 0 0 1-.617-.516.562.562 0 0 1 .527-.602zm7.287 7.5a4 4 0 0 1 4 4 4 4 0 0 1-4 4 4 4 0 0 1-4-4 4 4 0 0 1 4-4zm0 1a3 3 0 0 0-3 3 3 3 0 0 0 3 3 3 3 0 0 0 3-3 3 3 0 0 0-3-3zm0 1a2 2 0 0 1 2 2 2 2 0 0 1-2 2 2 2 0 0 1-2-2 2 2 0 0 1 2-2z" opacity=".1"/>
  <path d="M26.582 10a42.402 42.402 0 0 0-3.797.137c-2.59.204-5.125.625-6.641 1.156-3.039 1.059-3.527 1.125-3.289 2.172 1.051 1.563 1.59 3.323 2.559 4.938.285.207.621.32 1.109.113 4.03-1.566 8.199-2.332 14.02-.996 1.617-1.035 2.262-3.699 2.719-5.383.254-.953-.086-1.258-3.531-1.887-.861-.158-1.951-.235-3.148-.25zm2.773 2.545l.004.002a.564.564 0 0 1 .617.512.567.567 0 0 1-.527.605.575.575 0 0 1-.621-.518.568.568 0 0 1 .527-.602zm-12.643.955a.569.569 0 0 1 .619.512.571.571 0 0 1-.529.605.572.572 0 0 1-.617-.516.562.562 0 0 1 .527-.602" fill="#e5604c"/>
  <g>
    <path d="M40.03 7.531A22.922 22.922 0 0 1 45.999 23c0 12.703-10.297 23-23 23A22.92 22.92 0 0 1 7.53 40.031C11.708 44.322 17.54 47 23.999 47c12.703 0 23-10.298 23-23 0-6.462-2.677-12.291-6.969-16.469z" opacity=".1"/>
  </g>
  <path d="M24 13a12 12 0 0 0-12 12 12 12 0 0 0 12 12 12 12 0 0 0 12-12 12 12 0 0 0-12-12zm0 8a4 4 0 0 1 4 4 4 4 0 0 1-4 4 4 4 0 0 1-4-4 4 4 0 0 1 4-4zm0 1a3 3 0 0 0-3 3 3 3 0 0 0 3 3 3 3 0 0 0 3-3 3 3 0 0 0-3-3zm0 1a2 2 0 0 1 2 2 2 2 0 0 1-2 2 2 2 0 0 1-2-2 2 2 0 0 1 2-2z" fill="#4ca3e5"/>
</svg>

<svg xmlns="http://www.w3.org/2000/svg" viewBox="0 0 48 48">
 <defs>
  <linearGradient id="linearGradient3764" x1="1" x2="47" gradientUnits="userSpaceOnUse" gradientTransform="matrix(0,-1,1,0,-1.5e-6,47.999998)">
   <stop style="stop-color:#3d3d3d;stop-opacity:1"/>
   <stop offset="1" style="stop-color:#474747;stop-opacity:1"/>
  </linearGradient>
 </defs>
 <g>
  <path d="m 36.31 5 c 5.859 4.062 9.688 10.831 9.688 18.5 c 0 12.426 -10.07 22.5 -22.5 22.5 c -7.669 0 -14.438 -3.828 -18.5 -9.688 c 1.037 1.822 2.306 3.499 3.781 4.969 c 4.085 3.712 9.514 5.969 15.469 5.969 c 12.703 0 23 -10.298 23 -23 c 0 -5.954 -2.256 -11.384 -5.969 -15.469 c -1.469 -1.475 -3.147 -2.744 -4.969 -3.781 z m 4.969 3.781 c 3.854 4.113 6.219 9.637 6.219 15.719 c 0 12.703 -10.297 23 -23 23 c -6.081 0 -11.606 -2.364 -15.719 -6.219 c 4.16 4.144 9.883 6.719 16.219 6.719 c 12.703 0 23 -10.298 23 -23 c 0 -6.335 -2.575 -12.06 -6.719 -16.219 z" style="opacity:0.05"/>
  <path d="m 41.28 8.781 c 3.712 4.085 5.969 9.514 5.969 15.469 c 0 12.703 -10.297 23 -23 23 c -5.954 0 -11.384 -2.256 -15.469 -5.969 c 4.113 3.854 9.637 6.219 15.719 6.219 c 12.703 0 23 -10.298 23 -23 c 0 -6.081 -2.364 -11.606 -6.219 -15.719 z" style="opacity:0.1"/>
  <path d="m 31.25 2.375 c 8.615 3.154 14.75 11.417 14.75 21.13 c 0 12.426 -10.07 22.5 -22.5 22.5 c -9.708 0 -17.971 -6.135 -21.12 -14.75 a 23 23 0 0 0 44.875 -7 a 23 23 0 0 0 -16 -21.875 z" style="opacity:0.2"/>
 </g>
 <g>
  <path d="m 24 1 c 12.703 0 23 10.297 23 23 c 0 12.703 -10.297 23 -23 23 -12.703 0 -23 -10.297 -23 -23 0 -12.703 10.297 -23 23 -23 z" style="fill:url(#linearGradient3764);fill-opacity:1"/>
 </g>
 <g>
  <g>
   <g transform="translate(1,1)">
    <g style="opacity:0.1">
     <!-- color: #474747 -->
    </g>
   </g>
  </g>
 </g>
 <g>
  <g>
   <!-- color: #474747 -->
   <g>
    <path d="m 27.582 11 c -1.198 -0.015 -2.504 0.035 -3.797 0.137 c -2.59 0.204 -5.125 0.625 -6.641 1.156 c -3.039 1.059 -3.527 1.125 -3.289 2.172 c 0.814 1.211 1.326 2.538 1.963 3.826 a 12 12 0 0 0 -2.818 7.709 a 12 12 0 0 0 12 12 a 12 12 0 0 0 12 -12 a 12 12 0 0 0 -4.111 -9.02 c 0.685 -1.213 1.073 -2.735 1.373 -3.842 c 0.254 -0.953 -0.086 -1.258 -3.531 -1.887 c -0.861 -0.158 -1.951 -0.235 -3.148 -0.25 z m 2.773 2.545 l 0.004 0.002 c 0.316 -0.027 0.594 0.203 0.617 0.512 c 0.023 0.309 -0.207 0.578 -0.527 0.605 c -0.316 0.023 -0.598 -0.209 -0.621 -0.518 c -0.023 -0.309 0.215 -0.578 0.527 -0.602 z m -12.643 0.955 c 0.316 -0.027 0.592 0.203 0.619 0.512 c 0.023 0.309 -0.213 0.578 -0.529 0.605 c -0.313 0.023 -0.594 -0.207 -0.617 -0.516 c -0.027 -0.309 0.211 -0.578 0.527 -0.602 z m 7.287 7.5 a 4 4 0 0 1 4 4 a 4 4 0 0 1 -4 4 a 4 4 0 0 1 -4 -4 a 4 4 0 0 1 4 -4 z m 0 1 a 3 3 0 0 0 -3 3 a 3 3 0 0 0 3 3 a 3 3 0 0 0 3 -3 a 3 3 0 0 0 -3 -3 z m 0 1 a 2 2 0 0 1 2 2 a 2 2 0 0 1 -2 2 a 2 2 0 0 1 -2 -2 a 2 2 0 0 1 2 -2 z" style="fill:#000;opacity:0.1;fill-opacity:1;stroke:none;fill-rule:nonzero"/>
    <path d="m 26.582 10 c -1.198 -0.015 -2.504 0.035 -3.797 0.137 -2.59 0.204 -5.125 0.625 -6.641 1.156 -3.039 1.059 -3.527 1.125 -3.289 2.172 1.051 1.563 1.59 3.323 2.559 4.938 0.285 0.207 0.621 0.32 1.109 0.113 4.03 -1.566 8.199 -2.332 14.02 -0.996 1.617 -1.035 2.262 -3.699 2.719 -5.383 0.254 -0.953 -0.086 -1.258 -3.531 -1.887 -0.861 -0.158 -1.951 -0.235 -3.148 -0.25 z m 2.773 2.545 0.004 0.002 c 0.316 -0.027 0.594 0.203 0.617 0.512 0.023 0.309 -0.207 0.578 -0.527 0.605 -0.316 0.023 -0.598 -0.209 -0.621 -0.518 -0.023 -0.309 0.215 -0.578 0.527 -0.602 z m -12.643 0.955 c 0.316 -0.027 0.592 0.203 0.619 0.512 0.023 0.309 -0.213 0.578 -0.529 0.605 -0.313 0.023 -0.594 -0.207 -0.617 -0.516 c -0.027 -0.309 0.211 -0.578 0.527 -0.602" style="fill:#e5604c;fill-opacity:1;stroke:none;fill-rule:nonzero"/>
   </g>
  </g>
 </g>
 <g>
  <path d="m 40.03 7.531 c 3.712 4.084 5.969 9.514 5.969 15.469 0 12.703 -10.297 23 -23 23 c -5.954 0 -11.384 -2.256 -15.469 -5.969 4.178 4.291 10.01 6.969 16.469 6.969 c 12.703 0 23 -10.298 23 -23 0 -6.462 -2.677 -12.291 -6.969 -16.469 z" style="opacity:0.1"/>
 </g>
 <path d="M 24 13 A 12 12 0 0 0 12 25 A 12 12 0 0 0 24 37 A 12 12 0 0 0 36 25 A 12 12 0 0 0 24 13 z M 24 21 A 4 4 0 0 1 28 25 A 4 4 0 0 1 24 29 A 4 4 0 0 1 20 25 A 4 4 0 0 1 24 21 z M 24 22 A 3 3 0 0 0 21 25 A 3 3 0 0 0 24 28 A 3 3 0 0 0 27 25 A 3 3 0 0 0 24 22 z M 24 23 A 2 2 0 0 1 26 25 A 2 2 0 0 1 24 27 A 2 2 0 0 1 22 25 A 2 2 0 0 1 24 23 z" style="fill:#4ca3e5;opacity:1;fill-opacity:1;stroke:none"/>
</svg>
